!!!OTL: 1778. Tabak ist mein Leben.
!!!ARE: Europa, Mitteleuropa, Deutschland, Westfalen
!!!SCT: E1778
!!!TXL: @@DE
!!!YEM: Copyright 1995, estate of Helmut Schaffrath.
**kern	**text
*ICvox	*
*M4/4	*
*met(c)	*
*k[b-e-]	*
*B-:	*
=1	=1
!LO:TX:a:t=Nicht zu schnell.	!
{4.b-/	Ta-
8f	-bak
4d	iſt
4f	mein
=2	=2
2b-	Le-
4b-}	-ben,
{4b-	dem
=3	=3
4.cc	hab
8b-	ich
4a	mich
4b-	er-
=4	=4
2cc	-ge-
4cc	-ben
4dd	(er-
=5	=5
2cc	-ge-
4cc}	-ben),
{4ee-	Ta-
=6	=6
4dd	-bak
4dd	iſt
4cc	mei-
4cc	-ne
=7	=7
2b-	Luſt.
4r}	.
{4dd	Und
=8	=8
4ff	eh
4dd	ich
4b-	ihn
4a	ſollt
=9	=9
2g	laſ-
4g}	-ſen,
{4g	viel
=10	=10
4ee-	lie-
4dd	-ber
4cc	will
4b-	ich
=11	=11
2a	haſ-
4a	-ſen
4b-	(ja
=12	=12
2a	haſ-
4a}	-ſen)
{4ee-	ſelbſt
=13	=13
4dd	ei-
4dd	-nes
4cc	Mädchens
4cc	.
=14	=14
2b-	Kuß.
2r}	.
==	==
!!!AGN: Scherz - Lied, Tabak; Handwerksburschen - Lied
!!!ONB: ESAC (Essen Associative Code) Database: ERK3
!!!AMT: simple quadruple
!!!AIN: vox
!!!EED: Helmut Schaffrath
!!!EEV: 1.0
!!!GTL: Vermischter Inhalt.
!!!URL-scan: https://rosdok.uni-rostock.de/mcrviewer/recordIdentifier/rosdok_ppn745177999/iview2/phys_0563.iview2?x=-4.404412318551749&y=1752.2183461030945&scale=0.6456904138606623&rotation=0&layout=singlePageLayout
!!!ENC: Anna Maria Matuszewska
!!!EEV: 2025/08/01
*-	*-
